svgs/sharp-light/mill-sign.svg

<svg xmlns="http://www.w3.org/2000/svg" viewBox="0 0 384 512"><!--! Font Awesome Pro 6.6.0 by @fontawesome - https://fontawesome.com License - https://fontawesome.com/license (Commercial License) Copyright 2024 Fonticons, Inc. --><path d="M176 241.6L88.8 498.9l30.3 10.3L176 341.3l0 90.7 0 16 32 0 0-16 0-185.2 37.2-109.9c10.3-5.7 22.2-8.9 34.8-8.9c39.8 0 72 32.2 72 72l0 232 0 16 32 0 0-16 0-232c0-57.4-46.6-104-104-104c-7.4 0-14.7 .8-21.7 2.3l28.8-85.1L256.8 2.9 218.5 116.1C208 123.9 199 133.5 192 144.5C173.6 115.4 141.1 96 104 96c-27.9 0-53.3 11-72 29l0-29L0 96 0 200l0 8L0 432l0 16 32 0 0-16 0-224 0-8c0-39.8 32.2-72 72-72s72 32.2 72 72l0 41.6z"/></svg>

<svg xmlns="http://www.w3.org/2000/svg" viewBox="0 0 384 512"><!--! Font Awesome Pro 6.4.2 by @fontawesome - https://fontawesome.com License - https://fontawesome.com/license (Commercial License) Copyright 2023 Fonticons, Inc. --><path d="M176 241.6L88.8 498.9l30.3 10.3L176 341.3V432v16h32V432 246.8l37.2-109.9c10.3-5.7 22.2-8.9 34.8-8.9c39.8 0 72 32.2 72 72V432v16h32V432 200c0-57.4-46.6-104-104-104c-7.4 0-14.7 .8-21.7 2.3l28.8-85.1L256.8 2.9 218.5 116.1C208 123.9 199 133.5 192 144.5C173.6 115.4 141.1 96 104 96c-27.9 0-53.3 11-72 29V96H0V200v8V432v16H32V432 208v-8c0-39.8 32.2-72 72-72s72 32.2 72 72v41.6z"/></svg>
